X: 18
T: Ballydesmond, The
Z: chansherly212
S: https://thesession.org/tunes/238#setting53933
R: polka
M: 2/4
L: 1/8
K: Ador
|:"Am"EA AB|cd e2|"G" G2 G>A|GE ED|
"Am"EA AB|cd ef|"G"ge "Em"dB|"Am"A2 A2:|
|:"Am"a2 a>b|ag ef|"G"g2 g>a| ge ed|
"Am"ea a>b|ag ef|"G"ge "Em"dB|"Am"A2 A2:|

%-------------------- TUNE SEPARATOR --------------------%

